X: 203
T: Cai diao
L: 1/16
M: 2/4
K: A
e2 a2 [I:setbarnb 1]| 
a2 f e e e f e | 
e e G> A A A B2 | 
B e G2 G E/ A/ B2 | 
e G/ A/ G2 A B B2 | 
B e G G e G G/ A/ B | 
d G/ A/ G G A2 B2 | 
B2A4F2 | 
E8 |]

@@@ Tune index: 8871
